X: 345
T: Fang shao
%%abc-version 2.0
%%abcx-abcm2ps-target-version 5.9.1 (29 Sep 2008)
%%abc-creator hum2abc beta
%%abcx-conversion-date 2013/10/02 07:52:30
%%abc-edited-by Helmut Schaffrath
%%humdrum-veritas 661378318
%%humdrum-veritas-data 3173334419
%%continueall 1
%%barnumbers 0
L: 1/16
M: 2/4
K: Bb
c'2 c' c' b c' d' f' [I:setbarnb 1]| 
c'2 c' c' b2 g2 | 
c'2 d' f' d' c' b g | 
g f e cf4 | 
c'2 f g2< c'2 b | 
g b g f2< e2 f | 
g2 g b g f e d | 
c2> B2c4 |]  



